Newaita-dark/actions/16/align-vertical-bottom-out.svg

<svg height="16" viewBox="0 0 16 16" width="16" xmlns="http://www.w3.org/2000/svg"><g fill="#e0e0e0"><path d="m14.554688 8.0625c0 .183594-.148438.332031-.332032.332031h-12.570312c-.179688 0-.328125-.148437-.328125-.332031s.148437-.328125.328125-.328125h12.570312c.183594 0 .332032.144531.332032.328125zm0 0"/><path d="m9.921875 1.449219c-.730469 0-1.320313.589843-1.320313 1.320312v1.984375c0 .734375.589844 1.324219 1.320313 1.324219h1.984375c.734375 0 1.324219-.589844 1.324219-1.324219v-1.984375c0-.730469-.589844-1.320312-1.324219-1.320312zm.332031 1.320312h1.324219c.183594 0 .328125.148438.328125.332031v1.324219c0 .183594-.144531.328125-.328125.328125h-1.324219c-.183594 0-.332031-.144531-.332031-.328125v-1.324219c0-.183593.148437-.332031.332031-.332031zm0 0"/><path d="m3.96875 1.449219c-.734375 0-1.324219.589843-1.324219 1.320312v2.648438c0 .730469.589844 1.320312 1.324219 1.320312h1.984375c.734375 0 1.324219-.589843 1.324219-1.320312v-2.648438c0-.730469-.589844-1.320312-1.324219-1.320312zm.332031 1.320312h1.320313c.183594 0 .332031.148438.332031.332031v1.984376c0 .183593-.148437.332031-.332031.332031h-1.320313c-.183593 0-.332031-.148438-.332031-.332031v-1.984376c0-.183593.148438-.332031.332031-.332031zm0 0"/><path d="m13.230469 10.710938c0-.734376-.589844-1.324219-1.324219-1.324219h-2.644531c-.734375 0-1.324219.589843-1.324219 1.324219v1.984374c0 .730469.589844 1.320313 1.324219 1.320313h2.644531c.734375 0 1.324219-.589844 1.324219-1.320313zm0 0"/></g></svg>

<?xml version="1.0" encoding="UTF-8"?>
<svg xmlns="http://www.w3.org/2000/svg" xmlns:xlink="http://www.w3.org/1999/xlink" width="16px" height="16px" viewBox="0 0 16 16" version="1.1">
<g id="surface1">
<path style=" stroke:none;fill-rule:nonzero;fill:rgb(87.843138%,87.843138%,87.843138%);fill-opacity:1;" d="M 14.554688 8.0625 C 14.554688 8.246094 14.40625 8.394531 14.222656 8.394531 L 1.652344 8.394531 C 1.472656 8.394531 1.324219 8.246094 1.324219 8.0625 C 1.324219 7.878906 1.472656 7.734375 1.652344 7.734375 L 14.222656 7.734375 C 14.40625 7.734375 14.554688 7.878906 14.554688 8.0625 Z M 14.554688 8.0625 "/>
<path style=" stroke:none;fill-rule:nonzero;fill:rgb(87.843138%,87.843138%,87.843138%);fill-opacity:1;" d="M 9.921875 1.449219 C 9.191406 1.449219 8.601562 2.039062 8.601562 2.769531 L 8.601562 4.753906 C 8.601562 5.488281 9.191406 6.078125 9.921875 6.078125 L 11.90625 6.078125 C 12.640625 6.078125 13.230469 5.488281 13.230469 4.753906 L 13.230469 2.769531 C 13.230469 2.039062 12.640625 1.449219 11.90625 1.449219 Z M 10.253906 2.769531 L 11.578125 2.769531 C 11.761719 2.769531 11.90625 2.917969 11.90625 3.101562 L 11.90625 4.425781 C 11.90625 4.609375 11.761719 4.753906 11.578125 4.753906 L 10.253906 4.753906 C 10.070312 4.753906 9.921875 4.609375 9.921875 4.425781 L 9.921875 3.101562 C 9.921875 2.917969 10.070312 2.769531 10.253906 2.769531 Z M 10.253906 2.769531 "/>
<path style=" stroke:none;fill-rule:nonzero;fill:rgb(87.843138%,87.843138%,87.843138%);fill-opacity:1;" d="M 3.96875 1.449219 C 3.234375 1.449219 2.644531 2.039062 2.644531 2.769531 L 2.644531 5.417969 C 2.644531 6.148438 3.234375 6.738281 3.96875 6.738281 L 5.953125 6.738281 C 6.6875 6.738281 7.277344 6.148438 7.277344 5.417969 L 7.277344 2.769531 C 7.277344 2.039062 6.6875 1.449219 5.953125 1.449219 Z M 4.300781 2.769531 L 5.621094 2.769531 C 5.804688 2.769531 5.953125 2.917969 5.953125 3.101562 L 5.953125 5.085938 C 5.953125 5.269531 5.804688 5.417969 5.621094 5.417969 L 4.300781 5.417969 C 4.117188 5.417969 3.96875 5.269531 3.96875 5.085938 L 3.96875 3.101562 C 3.96875 2.917969 4.117188 2.769531 4.300781 2.769531 Z M 4.300781 2.769531 "/>
<path style=" stroke:none;fill-rule:nonzero;fill:rgb(87.843138%,87.843138%,87.843138%);fill-opacity:1;" d="M 13.230469 10.710938 C 13.230469 9.976562 12.640625 9.386719 11.90625 9.386719 L 9.261719 9.386719 C 8.527344 9.386719 7.9375 9.976562 7.9375 10.710938 L 7.9375 12.695312 C 7.9375 13.425781 8.527344 14.015625 9.261719 14.015625 L 11.90625 14.015625 C 12.640625 14.015625 13.230469 13.425781 13.230469 12.695312 Z M 13.230469 10.710938 "/>
</g>
</svg>
